X:1
T:James Gibb editions
T:Plange quasi virgo - Ingegneri
T:#
%%score [ 1 2 3 4 ]
L:1/8
Q:1/4=90
M:4/4
K:F
V:1 treble nm="Soprano" snm="S"
V:2 treble nm="Alto" snm="A"
V:3 treble-8 nm="Tenor" snm="T"
V:4 bass nm="Bass" snm="B"
V:1
"^Plange quasi virgo""^Marco Antonio Ingegneri\n(1547-92)" A8 | A4 z2 B2- | B2 =B2 c4- | %3
w: Plan-|ge, plan\-|* ge, qua\-|
 c2 =B2 A4 | A4 ^G4 | A8 |[M:4/4] ^G4 z2 A2- | A2 A2 A4 | ^G4 A4 | ^G4 A4 | z2 A2 B4- | B2 G2 G4 | %12
w: * si vir-|go, plebs|me-|a; u\-|* lu- la-|te, pa-|sto- res,|in ci\-|* ne- re|
 A4 B4 | A6 A2 |S A8 || A4 A2 A2- | A2 G2 z2 A2- | A2 c2 d3 d | c4 c4 | c4 z2 B2- | B2 A2 B4 | %21
w: et ci-|li- ci-|o:|Qui- a ve\-|* nit di\-|* es Do- mi-|ni ma-|gna et|* a- ma-|
 A4 A4 | A8!fine! |] A4 A3 A | A2 B2 c2 d2 | c4 d4 | z8 | z4 z2 d2 | f6 _e2 | d4 z2 A2 | c4 B2 A2 | %31
w: ra val-|de.|Ac- cin- gi-|te vos, sa- cer-|do- tes,||et|plan- gi-|te, et|plan- gi- te,|
 B4 B4 | A2 d2 c4 | d4 z4 | c6 c2- | c2 B2 A4 | A4 d3 d | ^c8"^al Fine" |] %38
w: mi- ni-|stri al- ta-|ris,|a- sper\-|* gi- te|vos ci- ne-|re.|
V:2
 F8 | ^F4 z2 G2- | G2 ^G2 A4- | A2 =G2 E4 | F4 E4 | (C4 D4) |[M:4/4] E4 z2 E2- | E2 F2 E4 | %8
w: Plan-|ge, plan\-|* ge, qua\-|* si vir-|go, plebs|me\- *|a; u\-|* lu- la-|
 E2 (E4 D2) | E4 E4 | z2 ^F2 G4- | G2 G2 E4 | F4 D4 | F6 ^F2 | ^F8 || E4 E2 !courtesy!=F2- | %16
w: te, pa\- *|sto- res,|in ci\-|* ne- re|et ci-|li- ci-|o:|Qui- a ve\-|
 F2 E2 z2 F2- | F2 A2 F2 G2 | A4 G4 | A4 D4 | E2 F4 E2 | F8 | E8 |] ^F4 F3 F | ^F2 G2 A2 B2 | %25
w: * nit di\-|* es Do- mi-|ni ma-|gna et|a- ma- ra|val-|de.|Ac- cin- gi-|te vos, sa- cer-|
 A4 B4 | z4 z2 A2 | c6 B2 | A2 A2 c4- | c2 B2 A4 | z8 | d4 d2 B2 | c2 (B4 A2) | B4 z2 A2 | A6 G2 | %35
w: do- tes,|et|plan\-- gì-|te, et plan\-|* gi- te,||mi- ni- stri|al- ta\- *|ris, a-|sper- gi-|
 F6 E2 | F6 G2 | A8 |] %38
w: te vos|ci- ne-|re.|
V:3
 c8 | d4 z2 d2- | d2 e2 e4- | e2 e2 ^c4 | d4 =B2 (=c2- | c=BA=G A4) | %6
w: Plan-|ge, plan\-|* ge, qua\-|* si vir-|go, plebs me\-||
[M:4/4][K:treble-8] =B4 z2 ^c2- | c2 d2 ^c4 | =B4 A4 | =B4 ^c4 | z2 d2 (d4 | e2) c2 c4 | c4 B4 | %13
w: a; u\-|* lu- la-|te, pa-|sto- res,|in ci\-|* ne- re|et ci-|
 c6 d2 | d8 || c4 c2 c2- | c2 c2 z2 c2 | c2 f4 d2 | e2 (f3 e/d/ e2) | f4 B4 | c2 d4 G2 | %21
w: li- ci-|o:|Qui- a ve\-|* nit di-|es Do- mi-|ni ma\- * * *|gna et|a- ma- ra|
 (c3 B/c/ dA d2- | d2 ^c=B) c4 |] d4 d3 d | d2 g2"^," =f2 B2 | f4 B4 | z2 d2 f4- | f2 _e2 d4- | %28
w: val\- * * * * *|* * * de.|Ac- cin- gi-|te vos, sa- cer-|do- tes,|et plan\-|* gì- te,|
 d4 z4 | z2 d2 f4- | f2 _e2 d4 | g4 g4 | f2 B2 f4 | B4 z2 f2 | f6 e2 | d6 ^c2 | d4 B4 | A8 |] %38
w: |et plan\-|* gi- te,|mi- ni-|stri al- ta-|ris, a-|sper- gi-|te vos|ci- ne-|re.|
V:4
 F,8 | D,4 z2 G,2- | G,2 E,2 A,4- | A,2 E,2 A,4 | D,4 E,4 | F,8 |[M:4/4] E,4 z2 A,2- | %7
w: Plan-|ge, plan\-|* ge, qua\-|* si vir-|go, plebs|me\-|a; u\-|
 A,2 D,2 A,4 | E,4 F,4 | E,4 A,4 | z2 D,2 G,4- | G,2 C,2 C,4 | F,4 G,4 | F,6 D,2 | D,8 || %15
w: * lu- la-|te, pa-|sto- res,|in ci\-|* ne- re|et ci-|li- ci-|o:|
 A,4 A,2 F,2- | F,2 C,2 z2 F,2- | F,2 F,2 B,3 B, | A,4 C4 | F,4 G,4- | G,2 F,2 G,4 | F,4 D,4 | %22
w: Qui- a ve\-|* nit di\-|* es Do- mi-|ni ma-|gna et|* a- ma-|ra val-|
 A,8 |] z8 | z8 | z8 | z8 | z8 | z8 | z8 | z8 | z8 | z8 | z8 | z8 | z8 | z8 | z8 |] %38
w: de.||||||||||||||||

